svg/fluentui-system-icons/ic_fluent_wrench_screwdriver_20_regular.svg

<svg width="20" height="20" viewBox="0 0 20 20" fill="none" xmlns="http://www.w3.org/2000/svg">
<path d="M17 15.5547V10.5C16.9948 10.3854 16.9714 10.2943 16.9297 10.2266C16.888 10.1589 16.8307 10.1094 16.7578 10.0781C16.6849 10.0469 16.6068 10.0261 16.5234 10.0156C16.4401 10.0052 16.3542 10 16.2656 10H16V5.1172C16.0312 5.04949 16.0755 4.96876 16.1328 4.87501C16.1901 4.78126 16.2448 4.67709 16.2969 4.56251C16.349 4.44792 16.3958 4.34115 16.4375 4.24219C16.4792 4.14323 16.5 4.06251 16.5 4.00001C16.4948 3.9375 16.4714 3.83073 16.4297 3.67969C16.388 3.52865 16.3359 3.36459 16.2734 3.1875C16.2109 3.01042 16.151 2.84375 16.0938 2.6875C16.0365 2.53125 15.9974 2.41667 15.9766 2.34375C15.9349 2.23958 15.8724 2.15625 15.7891 2.09375C15.7057 2.03125 15.6094 2 15.5 2H13.5C13.3906 2.00521 13.2917 2.03906 13.2031 2.10156C13.1146 2.16406 13.0547 2.24479 13.0234 2.34375C12.9974 2.42188 12.9557 2.53906 12.8984 2.69531C12.8411 2.85156 12.7839 3.01823 12.7266 3.19532C12.6693 3.3724 12.6172 3.53646 12.5703 3.6875C12.5234 3.83855 12.5 3.94271 12.5 4.00001C12.5 4.07292 12.5208 4.15626 12.5625 4.25001C12.6042 4.34376 12.6536 4.44792 12.7109 4.56251C12.7682 4.67709 12.8229 4.78386 12.875 4.88282C12.9271 4.98178 12.9688 5.0599 13 5.1172V10H12.7344C12.6406 10 12.5521 10.0052 12.4688 10.0156C12.3854 10.0261 12.3073 10.0495 12.2344 10.086C12.1615 10.1224 12.1042 10.1719 12.0625 10.2344C12.0208 10.2969 12 10.3854 12 10.5V15.5547C12 15.8933 12.0677 16.211 12.2031 16.5078C12.3385 16.8047 12.5208 17.0651 12.75 17.2891C12.9792 17.5131 13.2448 17.6875 13.5469 17.8125C13.849 17.9375 14.1667 18 14.5 18C14.8333 18 15.151 17.9349 15.4531 17.8047C15.7552 17.6745 16.0208 17.5 16.25 17.2813C16.4792 17.0625 16.6615 16.8047 16.7969 16.5078C16.9323 16.211 17 15.8933 17 15.5547ZM15 10H14V5.00001C14 4.92188 13.9818 4.84636 13.9453 4.77344L13.5391 3.96094L13.8594 3H15.1406L15.4609 3.96094L15.0547 4.77344C15.0182 4.84636 15 4.92188 15 5.00001V10ZM13 12V11H16V12H13ZM16 13V15.5C16.0052 15.698 15.9661 15.8907 15.8828 16.0782C15.7995 16.2657 15.6901 16.4271 15.5547 16.5625C15.4193 16.698 15.2604 16.8047 15.0781 16.8828C14.8958 16.961 14.7031 17 14.5 17C14.3021 17.0052 14.1094 16.9662 13.9219 16.8828C13.7344 16.7995 13.5729 16.6901 13.4375 16.5547C13.3021 16.4193 13.1953 16.2605 13.1172 16.0782C13.0391 15.8959 13 15.7032 13 15.5V13H16ZM6 2.54184C6 2.37557 5.91734 2.22017 5.77946 2.12723C5.64158 2.0343 5.46652 2.01598 5.31239 2.07837C3.66416 2.74556 2.5 4.36177 2.5 6.25108C2.5 8.01866 3.51897 9.5472 5 10.2832V15.9989C5 17.1034 5.89543 17.9989 7 17.9989C8.10457 17.9989 9 17.1034 9 15.9989V10.2832C10.481 9.5472 11.5 8.01866 11.5 6.25108C11.5 4.36177 10.3358 2.74556 8.68761 2.07837C8.53348 2.01598 8.35842 2.0343 8.22054 2.12723C8.08266 2.22017 8 2.37557 8 2.54184V5.99888C8 6.55117 7.55228 6.99888 7 6.99888C6.44772 6.99888 6 6.55117 6 5.99888V2.54184ZM3.5 6.25108C3.5 5.06224 4.09283 4.01108 5 3.3783V5.99888C5 7.10345 5.89543 7.99888 7 7.99888C8.10457 7.99888 9 7.10345 9 5.99888V3.3783C9.90717 4.01107 10.5 5.06224 10.5 6.25108C10.5 7.71915 9.59599 8.97727 8.31239 9.49686C8.12357 9.57329 8 9.75662 8 9.96032V15.9989C8 16.5512 7.55228 16.9989 7 16.9989C6.44772 16.9989 6 16.5512 6 15.9989V9.96032C6 9.75662 5.87643 9.57329 5.68761 9.49686C4.40401 8.97727 3.5 7.71915 3.5 6.25108Z" fill="#212121"/>
</svg>

<svg xmlns="http://www.w3.org/2000/svg" width="20" height="20"><path d="M17 15.555V10.5a.569.569 0 0 0-.07-.273.368.368 0 0 0-.172-.149.868.868 0 0 0-.235-.062 2.08 2.08 0 0 0-.257-.016H16V5.117c.031-.068.076-.148.133-.242.057-.094.112-.198.164-.312.052-.115.099-.222.14-.32A.66.66 0 0 0 16.5 4a2.053 2.053 0 0 0-.07-.32 7.432 7.432 0 0 0-.157-.493 45.772 45.772 0 0 0-.18-.5 5.543 5.543 0 0 1-.116-.343.57.57 0 0 0-.188-.25A.469.469 0 0 0 15.5 2h-2a.55.55 0 0 0-.297.102.46.46 0 0 0-.18.242 11.3 11.3 0 0 1-.125.351 13.75 13.75 0 0 0-.171.5c-.058.177-.11.341-.157.493-.047.15-.07.255-.07.312 0 .073.02.156.063.25.041.094.09.198.148.313a17.292 17.292 0 0 0 .289.554V10h-.266a2.03 2.03 0 0 0-.265.016.72.72 0 0 0-.235.07.436.436 0 0 0-.171.148.477.477 0 0 0-.063.266v5.055c0 .338.068.656.203.953.136.297.318.557.547.781A2.491 2.491 0 0 0 14.5 18c.333 0 .651-.065.953-.195a2.68 2.68 0 0 0 .797-.524 2.45 2.45 0 0 0 .547-.773 2.27 2.27 0 0 0 .203-.953ZM15 10h-1V5a.5.5 0 0 0-.055-.227l-.406-.812.32-.961h1.282l.32.96-.406.813A.5.5 0 0 0 15 5v5Zm-2 2v-1h3v1h-3Zm3 1v2.5a1.33 1.33 0 0 1-.117.578 1.59 1.59 0 0 1-.328.485A1.503 1.503 0 0 1 14.5 17a1.321 1.321 0 0 1-.578-.117A1.504 1.504 0 0 1 13 15.5V13h3ZM6 2.542a.5.5 0 0 0-.688-.464A4.501 4.501 0 0 0 5 10.283V16a2 2 0 0 0 4 0v-5.716a4.5 4.5 0 0 0-.312-8.205.5.5 0 0 0-.688.464V6a1 1 0 1 1-2 0V2.542Zm-2.5 3.71c0-1.19.593-2.24 1.5-2.874v2.62a2 2 0 1 0 4 0v-2.62a3.501 3.501 0 0 1-.688 6.119A.5.5 0 0 0 8 9.96V16a1 1 0 1 1-2 0V9.96a.5.5 0 0 0-.312-.463A3.501 3.501 0 0 1 3.5 6.25Z"/></svg>
